flaticon/technology/ethernet.svg

<svg xmlns="http://www.w3.org/2000/svg" width="32" height="32" viewBox="0 0 24 24">
    <path d="M 1.683594 2.949219 L 4.210938 2.949219 L 4.210938 3.789062 L 1.683594 3.789062 Z M 1.683594 2.949219"/>
    <path d="M 23.578125 8 L 23.578125 5.050781 L 18.527344 5.050781 L 18.527344 8 L 18.105469 8 L 18.105469 10.613281 C 18.105469 11.03125 18.445312 11.367188 18.859375 11.367188 L 19.789062 11.367188 L 19.789062 11.789062 C 19.789062 12.335938 20.144531 12.800781 20.632812 12.976562 L 20.632812 14.167969 C 20.632812 17.070312 19.128906 19.988281 15.875 21.414062 C 17.238281 20.183594 18.105469 18.402344 18.105469 16.421875 C 18.105469 12.707031 15.082031 9.683594 11.367188 9.683594 C 7.652344 9.683594 4.632812 12.707031 4.632812 16.421875 C 4.632812 17.792969 5.046875 19.066406 5.75 20.128906 C 4.285156 18.714844 3.367188 16.738281 3.367188 14.542969 L 3.367188 8.34375 C 3.855469 8.167969 4.210938 7.707031 4.210938 7.15625 L 5.140625 7.15625 C 5.554688 7.15625 5.894531 6.820312 5.894531 6.402344 L 5.894531 3.789062 L 5.472656 3.789062 L 5.472656 0.84375 L 0.421875 0.84375 L 0.421875 3.789062 L 0 3.789062 L 0 6.402344 C 0 6.820312 0.339844 7.15625 0.753906 7.15625 L 1.683594 7.15625 C 1.683594 7.707031 2.039062 8.167969 2.527344 8.34375 L 2.527344 14.953125 L 2.535156 14.953125 C 2.75 19.515625 6.527344 23.15625 11.140625 23.15625 C 11.195312 23.15625 11.25 23.15625 11.304688 23.15625 C 11.328125 23.15625 11.347656 23.15625 11.367188 23.15625 C 11.414062 23.15625 11.460938 23.152344 11.503906 23.152344 C 17.394531 23.003906 21.472656 19.355469 21.472656 14.167969 L 21.472656 12.976562 C 21.960938 12.800781 22.316406 12.335938 22.316406 11.789062 L 22.316406 11.367188 L 23.246094 11.367188 C 23.660156 11.367188 24 11.03125 24 10.613281 L 24 8 Z M 1.683594 5.472656 L 1.683594 6.316406 L 0.84375 6.316406 L 0.84375 4.632812 L 1.261719 4.632812 L 1.261719 1.683594 L 1.683594 1.683594 L 1.683594 2.527344 L 2.527344 2.527344 L 2.527344 1.683594 L 3.367188 1.683594 L 3.367188 2.527344 L 4.210938 2.527344 L 4.210938 1.683594 L 4.632812 1.683594 L 4.632812 4.632812 L 5.050781 4.632812 L 5.050781 6.316406 L 4.210938 6.316406 L 4.210938 5.472656 Z M 2.949219 7.578125 C 2.714844 7.578125 2.527344 7.390625 2.527344 7.15625 L 2.527344 6.316406 L 3.367188 6.316406 L 3.367188 7.15625 C 3.367188 7.390625 3.179688 7.578125 2.949219 7.578125 Z M 5.472656 16.421875 C 5.472656 13.171875 8.117188 10.527344 11.367188 10.527344 C 14.617188 10.527344 17.261719 13.171875 17.261719 16.421875 C 17.261719 17.320312 17.054688 18.171875 16.691406 18.933594 C 16.785156 18.53125 16.84375 18.113281 16.84375 17.683594 C 16.84375 14.667969 14.386719 12.210938 11.367188 12.210938 C 8.351562 12.210938 5.894531 14.667969 5.894531 17.683594 C 5.894531 18.113281 5.949219 18.53125 6.042969 18.933594 C 5.683594 18.171875 5.472656 17.320312 5.472656 16.421875 Z M 11.511719 22.308594 C 11.445312 22.308594 11.375 22.3125 11.304688 22.3125 C 8.78125 22.277344 6.738281 20.214844 6.738281 17.683594 C 6.738281 15.128906 8.816406 13.050781 11.367188 13.050781 C 13.921875 13.050781 16 15.128906 16 17.683594 C 16 20.191406 14 22.230469 11.511719 22.308594 Z M 21.472656 11.367188 L 21.472656 11.789062 C 21.472656 12.023438 21.285156 12.210938 21.050781 12.210938 C 20.820312 12.210938 20.632812 12.023438 20.632812 11.789062 L 20.632812 10.949219 L 21.472656 10.949219 Z M 23.15625 10.527344 L 22.316406 10.527344 L 22.316406 9.683594 L 19.789062 9.683594 L 19.789062 10.527344 L 18.949219 10.527344 L 18.949219 8.84375 L 19.367188 8.84375 L 19.367188 5.894531 L 19.789062 5.894531 L 19.789062 6.738281 L 20.632812 6.738281 L 20.632812 5.894531 L 21.472656 5.894531 L 21.472656 6.738281 L 22.316406 6.738281 L 22.316406 5.894531 L 22.738281 5.894531 L 22.738281 8.84375 L 23.15625 8.84375 Z M 23.15625 10.527344"/>
    <path d="M 19.789062 7.15625 L 22.316406 7.15625 L 22.316406 8 L 19.789062 8 Z M 19.789062 7.15625"/>
</svg>

<svg xmlns="http://www.w3.org/2000/svg" width="32" height="32" viewBox="0 0 24 24">
    <path d="M1.684 2.95H4.21v.84H1.684zm0 0"/>
    <path d="M23.578 8V5.05h-5.05V8h-.423v2.613c0 .418.34.754.754.754h.93v.422c0 .547.356 1.012.844 1.188v1.191c0 2.902-1.504 5.82-4.758 7.246a6.716 6.716 0 0 0 2.23-4.992 6.747 6.747 0 0 0-6.738-6.738c-3.715 0-6.734 3.023-6.734 6.738 0 1.371.414 2.644 1.117 3.707a7.74 7.74 0 0 1-2.383-5.586v-6.2c.488-.175.844-.636.844-1.187h.93a.754.754 0 0 0 .754-.754V3.79h-.422V.844H.422v2.945H0v2.613c0 .418.34.754.754.754h.93c0 .551.355 1.012.843 1.188v6.61h.008c.215 4.562 3.992 8.202 8.606 8.202h.226c.047 0 .094-.004.137-.004 5.89-.148 9.969-3.797 9.969-8.984v-1.191c.488-.176.843-.641.843-1.188v-.422h.93a.754.754 0 0 0 .754-.754V8zM1.684 5.473v.843h-.84V4.633h.418v-2.95h.422v.844h.843v-.843h.84v.843h.844v-.843h.422v2.949h.418v1.683h-.84v-.843zm1.265 2.105a.42.42 0 0 1-.422-.422v-.84h.84v.84a.42.42 0 0 1-.418.422zm2.524 8.844a5.902 5.902 0 0 1 5.894-5.895 5.902 5.902 0 0 1 5.895 5.895c0 .898-.207 1.75-.57 2.512.093-.403.152-.82.152-1.25a5.482 5.482 0 0 0-5.477-5.473 5.481 5.481 0 0 0-5.472 5.473c0 .43.054.847.148 1.25a5.878 5.878 0 0 1-.57-2.512zm6.039 5.887c-.067 0-.137.003-.207.003a4.636 4.636 0 0 1-4.567-4.628 4.637 4.637 0 0 1 4.63-4.633A4.638 4.638 0 0 1 16 17.684c0 2.507-2 4.546-4.488 4.625zm9.96-10.942v.422a.42.42 0 1 1-.84 0v-.84h.84zm1.684-.84h-.84v-.843H19.79v.843h-.84V8.844h.418v-2.95h.422v.844h.844v-.843h.84v.843h.843v-.843h.422v2.949h.418zm0 0"/>
    <path d="M19.79 7.156h2.526V8H19.79zm0 0"/>
</svg>
